flaticon/fitness/weight.svg

<svg xmlns="http://www.w3.org/2000/svg" width="32" height="32" viewBox="0 0 24 24">
    <path d="M 22.644531 22 C 22.644531 21.929688 22.628906 21.867188 22.605469 21.8125 C 22.601562 21.808594 22.601562 21.804688 22.601562 21.800781 L 22.480469 20.4375 C 22.480469 20.425781 22.484375 20.414062 22.484375 20.398438 C 22.484375 20.355469 22.476562 20.3125 22.464844 20.273438 L 22.34375 18.917969 C 22.355469 18.882812 22.363281 18.84375 22.363281 18.800781 C 22.363281 18.722656 22.347656 18.65625 22.316406 18.597656 L 21.480469 9.246094 C 21.480469 9.230469 21.484375 9.214844 21.484375 9.199219 C 21.484375 9.152344 21.476562 9.109375 21.464844 9.070312 L 21.34375 7.722656 C 21.355469 7.683594 21.363281 7.644531 21.363281 7.601562 C 21.363281 7.523438 21.347656 7.453125 21.316406 7.394531 C 21.195312 6.359375 20.335938 5.601562 19.324219 5.601562 L 17.203125 5.601562 L 17.203125 2.121094 C 17.203125 0.960938 16.324219 0 15.203125 0 L 8.804688 0 C 7.683594 0 6.804688 0.960938 6.804688 2.121094 L 6.804688 5.601562 L 4.683594 5.601562 C 3.644531 5.601562 2.761719 6.398438 2.644531 7.480469 L 1.5 20.273438 C 1.488281 20.3125 1.484375 20.355469 1.484375 20.398438 C 1.484375 20.414062 1.484375 20.425781 1.484375 20.4375 L 1.363281 21.800781 C 1.324219 22.359375 1.484375 22.960938 1.882812 23.359375 C 2.242188 23.761719 2.761719 24 3.324219 24 L 20.683594 24 C 21.203125 24 21.761719 23.761719 22.082031 23.359375 C 22.390625 23.019531 22.554688 22.609375 22.597656 22.183594 C 22.625 22.132812 22.644531 22.070312 22.644531 22 Z M 14.804688 5.601562 L 9.203125 5.601562 L 9.203125 2.960938 C 9.203125 2.679688 9.402344 2.398438 9.601562 2.398438 L 14.402344 2.398438 C 14.523438 2.398438 14.601562 2.519531 14.644531 2.558594 C 14.761719 2.679688 14.804688 2.800781 14.804688 2.960938 Z M 7.601562 2.121094 C 7.601562 1.398438 8.121094 0.800781 8.804688 0.800781 L 15.203125 0.800781 C 15.84375 0.800781 16.402344 1.398438 16.402344 2.121094 L 16.402344 5.601562 L 15.601562 5.601562 L 15.601562 2.960938 C 15.601562 2.640625 15.484375 2.320312 15.28125 2.039062 C 15.042969 1.761719 14.722656 1.601562 14.402344 1.601562 L 9.601562 1.601562 C 8.882812 1.601562 8.402344 2.320312 8.402344 2.960938 L 8.402344 5.601562 L 7.601562 5.601562 Z M 20.683594 23.238281 L 3.324219 23.238281 C 3.003906 23.238281 2.722656 23.078125 2.484375 22.839844 C 2.367188 22.703125 2.277344 22.554688 2.222656 22.398438 L 6.804688 22.398438 C 7.003906 22.398438 7.203125 22.238281 7.203125 22 C 7.203125 21.761719 7.042969 21.601562 6.804688 21.601562 L 2.1875 21.601562 L 2.261719 20.800781 L 6.003906 20.800781 C 6.203125 20.800781 6.402344 20.640625 6.402344 20.398438 C 6.402344 20.160156 6.242188 20 6.003906 20 L 2.335938 20 L 2.410156 19.199219 L 5.203125 19.199219 C 5.402344 19.199219 5.601562 19.039062 5.601562 18.800781 C 5.601562 18.558594 5.441406 18.398438 5.203125 18.398438 L 2.484375 18.398438 L 3.148438 11.199219 L 5.203125 11.199219 C 5.402344 11.199219 5.601562 11.039062 5.601562 10.800781 C 5.601562 10.558594 5.441406 10.398438 5.203125 10.398438 L 3.222656 10.398438 L 3.296875 9.601562 L 6.003906 9.601562 C 6.203125 9.601562 6.402344 9.441406 6.402344 9.199219 C 6.402344 8.960938 6.242188 8.800781 6.003906 8.800781 L 3.367188 8.800781 L 3.441406 8 L 6.804688 8 C 7.003906 8 7.203125 7.839844 7.203125 7.601562 C 7.203125 7.359375 7.042969 7.199219 6.804688 7.199219 L 3.554688 7.199219 C 3.722656 6.71875 4.164062 6.398438 4.683594 6.398438 L 19.363281 6.398438 C 19.84375 6.398438 20.300781 6.734375 20.484375 7.199219 L 17.203125 7.199219 C 16.964844 7.199219 16.804688 7.359375 16.804688 7.601562 C 16.804688 7.839844 16.964844 8 17.203125 8 L 20.601562 8 L 20.675781 8.800781 L 18.003906 8.800781 C 17.761719 8.800781 17.601562 8.960938 17.601562 9.199219 C 17.601562 9.441406 17.761719 9.601562 18.003906 9.601562 L 20.746094 9.601562 L 20.816406 10.398438 L 18.804688 10.398438 C 18.5625 10.398438 18.402344 10.558594 18.402344 10.800781 C 18.402344 11.039062 18.5625 11.199219 18.804688 11.199219 L 20.886719 11.199219 L 21.53125 18.398438 L 18.804688 18.398438 C 18.5625 18.398438 18.402344 18.558594 18.402344 18.800781 C 18.402344 19.039062 18.5625 19.199219 18.804688 19.199219 L 21.601562 19.199219 L 21.675781 20 L 18.003906 20 C 17.761719 20 17.601562 20.160156 17.601562 20.398438 C 17.601562 20.640625 17.761719 20.800781 18.003906 20.800781 L 21.746094 20.800781 L 21.816406 21.601562 L 17.203125 21.601562 C 16.964844 21.601562 16.804688 21.761719 16.804688 22 C 16.804688 22.238281 16.964844 22.398438 17.203125 22.398438 L 21.789062 22.398438 C 21.734375 22.566406 21.644531 22.71875 21.523438 22.839844 C 21.324219 23.121094 21.003906 23.238281 20.683594 23.238281 Z M 20.683594 23.238281"/>
</svg>

<svg xmlns="http://www.w3.org/2000/svg" width="32" height="32" viewBox="0 0 24 24">
    <path d="M22.645 22a.472.472 0 0 0-.04-.188c-.003-.003-.003-.007-.003-.011l-.122-1.363c0-.012.004-.024.004-.04a.44.44 0 0 0-.02-.125l-.12-1.355a.422.422 0 0 0-.027-.32l-.837-9.352c0-.016.004-.031.004-.047a.446.446 0 0 0-.02-.129l-.12-1.347a.437.437 0 0 0-.027-.328 2.01 2.01 0 0 0-1.993-1.793h-2.12v-3.48c0-1.161-.88-2.122-2-2.122h-6.4c-1.12 0-2 .96-2 2.121v3.48h-2.12c-1.04 0-1.922.797-2.04 1.88L1.5 20.272a.439.439 0 0 0-.016.125v.04l-.12 1.363c-.04.558.12 1.16.519 1.558.36.403.879.641 1.441.641h17.36c.52 0 1.078-.238 1.398-.64.309-.34.473-.75.516-1.176a.387.387 0 0 0 .047-.184zm-7.84-16.398H9.203V2.96c0-.281.2-.563.399-.563h4.8c.121 0 .2.122.243.16a.53.53 0 0 1 .16.403zm-7.203-3.48c0-.724.52-1.321 1.203-1.321h6.398c.64 0 1.2.597 1.2 1.32v3.48h-.801v-2.64c0-.32-.118-.64-.32-.922-.239-.277-.56-.437-.88-.437h-4.8c-.72 0-1.2.718-1.2 1.359V5.6h-.8zm13.082 21.116H3.324c-.32 0-.601-.16-.84-.398a1.389 1.389 0 0 1-.261-.442h4.582A.4.4 0 0 0 7.203 22c0-.238-.16-.398-.398-.398H2.188l.074-.801h3.742a.4.4 0 0 0 .398-.403c0-.238-.16-.398-.398-.398H2.336l.074-.8h2.793a.4.4 0 0 0 .399-.4c0-.241-.16-.402-.399-.402H2.484l.664-7.199h2.055a.4.4 0 0 0 .399-.398c0-.242-.16-.403-.399-.403h-1.98l.074-.796h2.707a.4.4 0 0 0 .398-.403c0-.238-.16-.398-.398-.398H3.367L3.441 8h3.364a.4.4 0 0 0 .398-.398c0-.243-.16-.403-.398-.403h-3.25c.168-.48.61-.8 1.129-.8h14.68c.48 0 .937.335 1.12.8h-3.28c-.24 0-.4.16-.4.403 0 .238.16.398.4.398h3.398l.074.8h-2.672c-.242 0-.402.16-.402.4 0 .241.16.402.402.402h2.742l.07.796h-2.011c-.242 0-.403.16-.403.403 0 .238.16.398.403.398h2.082l.644 7.2h-2.726c-.242 0-.403.16-.403.402 0 .238.16.398.403.398h2.797l.074.801h-3.672c-.242 0-.402.16-.402.398 0 .243.16.403.402.403h3.742l.07.8h-4.613c-.238 0-.398.16-.398.399 0 .238.16.398.398.398h4.586c-.055.168-.144.32-.266.442-.199.281-.52.398-.84.398zm0 0"/>
</svg>
